!!!!SEGMENT: pl-kk--kk-i-161--002_anonim--alleluia-assumpta-est-maria.krn
!!!cenid: 17xx:2602
!!!COM: Anonim
!!!COM-rismID: pe30004985
!!!CDT:
!!!CNT:
!!!OTL: Alleluia. Assumpta est Maria
!!!PDT:
!!!AGN: Sacred
!!!YEC: Copyright 2022 Narodowy Instytut Fryderyka Chopina (https://polishscores.org)
!!!YEM: License CC-BY-4.0 (https://creativecommons.org/licenses/by/4.0)
!!!SMS-siglum: PL-Kk
!!!SMS-shelfmark: Kk.I.161
!!!SMS-variant:
!!!SMS-altvar:
!!!SMS-shelfwork: 002 W
!!!NIFC-rismSourceID: 1001150820
!!!NIFC-rismChildID: 1001150824
!!!NIFC-islandoraID: pl-kk:3762
!!!URL-pdf-islandora: https://repozytorium.nifc.pl/islandora/object/pl-kk:3762/datastream/PDF/view
!!!URL-scan: https://polish.musicsources.pl/pl/lokalizacje/galeria/rekopisy/5789/1 @EN{Scan on Polish Music Sources Website} @PL{Skany w portalu Dziedzictwo Muzyki Polskiej w otwartym dostępie}
!!!IIIF:
!!!ONB-nifc: UWAGA: Tylko partia Bassus na stronie dodanej później
!!!AIN: 1 bass
!!!key: G:mix
**kern	**text
*ICvox	*
*Ibass	*
*I"Baſso.	*
*I'B	*
*clefF4	*
*k[]	*
*G:mix	*
*M4/2	*
*met(C|)	*
=1-	=1-
*2\right	*
1G	Al-
1G	-le-
=2-	=2-
1D	.
2E\	.
2C/	.
=3-	=3-
1D	-lu-
!LO:TX:t=P:problem:kreska pseudotaktowa	!
1GG	-ia
=4-	=4-
*	*ij
1D	Al-
2C/	-le-
2AA/	.
=5-	=5-
2BB/	.
2G\	.
2E\	.
2C\	.
=6-	=6-
1D	-lu-
!LO:TX:t=P:problem:kreska pseudotaktowa	!
1GG	-ia
*	*Xij
=7-	=7-
!LO:TX:t=P:problem:kreska pseudotaktowa	!
!LO:TX:a:t=1.	!
1r	.
!LO:LB:g=original	!
=-	=-
1E	al-
=8-	=8-
1D	-le-
2C/	.
2E/	.
=9-	=9-
1D	-lu-
2C/	-ia
*	*ij
2.F\	al-
=10-	=10-
.	.
4E\	.
!LO:TX:t=P:problem:kreska pseudotaktowa	!
2D\	-le-
2.G\	.
4F\	.
=11-	=11-
1D	-lu-
2E,\	-ia
*	*Xij
2C/	al-
=12-	=12-
2C/	-le-
2BB/	.
1C	-lu-
=13-	=13-
00GG;	-ia.
=14||-	=14||-
*M4/2	*
*met(C|)	*
1C	Aſ-
2C/	-sum-
2AA/	.
=15-	=15-
2BB/	.
2.GG/	.
4AA/	.
!LO:TX:t=P:problem:kreska pseudotaktowa	!
2BB/	.
=16-	=16-
1AA	-pta
2GG/	eſt
!LO:TX:t=P:problem:kreska pseudotaktowa	!
2BB/	.
!LO:LB:g=original	!
=17-	=17-
1C	ma-
1D	-ri-
=18-	=18-
!LO:TX:t=P:problem:kreska pseudotaktowa	!
1BB	-a
2BB/	Aſ-
2G\	.
=19-	=19-
2F\	.
2D\	-sum-
1E	.
=20-	=20-
1AA	.
!LO:TX:a:t=2	!
0D	.
=21-	=21-
.	.
1C	-pta
=22-	=22-
!LO:TX:t=P:problem:kreska pseudotaktowa	!
1F	.
1C	est
=23-	=23-
1D	Ma-
1GG	-ri-
=24-	=24-
!LO:TX:t=P:problem:kreska pseudotaktowa	!
1C	-a
2r	.
2BB/	in
=25-	=25-
4AA/	Cae-
4BB/	.
4C/	.
4D/	.
1E	.
=26-	=26-
2F\	.
!LO:TX:t=P:problem:kreska pseudotaktowa	!
2D\	.
2C/	.
2BB/	.
=27-	=27-
!LO:TX:t=P:problem:kreska pseudotaktowa	!
1AA	-lum
!LO:LB:g=original	!
=-	=-
2r	.
2.C/	gau-
=28-	=28-
.	.
4D/	.
2E\	-det
!LO:TX:t=P:problem:kreska pseudotaktowa	!
1D	.
=29-	=29-
1GG	Ex-
0GG	-er-
=30-	=30-
.	.
2C/	-ci-
!LO:TX:t=P:problem:kreska pseudotaktowa	!
2GG/	-tus
=31-	=31-
2r	.
2AA/	E-
1C	-xer-
=32-	=32-
1D	.
1AA	.
=33-	=33-
1E	.
2F\	.
2C/	.
=34-	=34-
1D	.
1GG	.
=35-	=35-
1C	-ci-
!LO:TX:t=P:problem:kreska pseudotaktowa	!
1D	-tus
=36-	=36-
1E	gau-
(1D	-det
=37-	=37-
!LO:TX:t=P:problem:kreska pseudotaktowa	!
1C)	.
1D	Ex-
=38-	=38-
2GG/	-er-
2C/	.
2.D/	.
4C/	.
!LO:PB:g=original	!
=39-	=39-
4BB/	.
4AA/	.
2BB/	.
1C	.
=40-	=40-
1.GG	.
2GG/	.
=41-	=41-
2D/	.
4C/	.
4BB/	.
1AA	-ci-
=42-	=42-
!LO:TX:t=P:problem:kreska pseudotaktowa	!
1GG	-tus.
1GG	An-
=43-	=43-
1D	.
2E\	-ge-
2BB/	-lo-
=44-	=44-
!LO:TX:t=P:problem:kreska pseudotaktowa	!
1AA	-rum
1D	.
=45-	=45-
2C/	An-
2E/	-ge-
1D	-lo-
=46-	=46-
0C	.
=47-	=47-
1D	.
2E\	.
2.C/	.
=48-	=48-
.	.
4D/	-rum
!LO:TX:t=P:problem:kreska pseudotaktowa	!
2E\	.
!LO:LB:g=original	!
=-	=-
1D	gau-
=49-	=49-
2GG/	-det
!LO:TX:t=P:problem:kreska pseudotaktowa	!
2C/	.
2r	.
2GG/	e-
=50-	=50-
1C	-xer-
2C/	-ci-
2AA/	.
=51-	=51-
!LO:TX:t=P:problem:kreska pseudotaktowa	!
1GG	-tus
2C/	An-
2E\	.
=52-	=52-
1D	.
2GG/	.
2C/	.
=53-	=53-
2F\	.
2D\	-ge-
1E	-lo-
=54-	=54-
!LO:TX:t=P:problem:kreska pseudotaktowa	!
1D	.
2C,/	-rum
1F\	An-
=55-	=55-
.	.
4C/	-ge-
4D/	.
1E	-lo-
=56-	=56-
1AA	.
1D	-rum
=57-	=57-
!LO:TX:t=P:problem:kreska pseudotaktowa	!
1GG	.
!LO:LB:g=original	!
=-	=-
*	*ij
2C/	An-
2E/	-ge-
=58-	=58-
1D	.
2GG/	-lo-
2C/	.
=59-	=59-
2.D/	.
4C/	.
2BB/	-rum
2C/	An-
=60-	=60-
2C/	-ge-
2BB/	.
1C	-lo-
=61-	=61-
00GG;	-rum
*	*Xij
!LO:TX:b:rj:t=Alleluia da Capo.	!
=-	=-
*-	*-
!!!RDF**kern: i = editorial accidental
!!!RDF**kern: > = above
!!!RDF**kern: < = below
!!!RDF**kern: N = linked
!!!RDF**kern: | = vertical stroke
!!!ENC: Andrzej Gręziak
!!!EED: Katarzyna Serwa
!!!END: 2024-04-11
!!!EEV: 2024-05-07
